X: 1
T:Horn=pipe
M:6/4
L:1/4
S:Jane Pickering Lute MS (1630-1650 section)
S:pete stewart  tradtunes 2005-6-23
K:F
| F,F A/B/ c f2 | F,F A/B/ cBG | F,F A/B/ c f2 | gGG,BAG |
| C,cecg2 | c d/e/f/e/ d/c/ BG | C,cecge/f/ | gGG,BAG |
| AFF,cAF | AFF,cBG | AFF,cAF | cGG,BAG ||
